src/components/icon/assets/drag.svg

<?xml version="1.0" encoding="UTF-8"?>
<svg width="24px" height="24px" viewBox="0 0 24 24" version="1.1" xmlns="http://www.w3.org/2000/svg" xmlns:xlink="http://www.w3.org/1999/xlink">
    <!-- Generator: Sketch 60 (88103) - https://sketch.com -->
    <title>Drag</title>
    <desc>Created with Sketch.</desc>
    <g id="Drag" stroke="none" stroke-width="1" fill="none" fill-rule="evenodd">
        <path d="M6,20 L6,17.7142857 L8.28571429,17.7142857 L8.28571429,20 L6,20 L6,20 Z M10.5714286,20 L10.5714286,17.7142857 L12.8571429,17.7142857 L12.8571429,20 L10.5714286,20 L10.5714286,20 Z M15.1428571,20 L15.1428571,17.7142857 L17.4285714,17.7142857 L17.4285714,20 L15.1428571,20 L15.1428571,20 Z M6,15.4285714 L6,13.1428571 L8.28571429,13.1428571 L8.28571429,15.4285714 L6,15.4285714 L6,15.4285714 Z M10.5714286,15.4285714 L10.5714286,13.1428571 L12.8571429,13.1428571 L12.8571429,15.4285714 L10.5714286,15.4285714 L10.5714286,15.4285714 Z M15.1428571,15.4285714 L15.1428571,13.1428571 L17.4285714,13.1428571 L17.4285714,15.4285714 L15.1428571,15.4285714 L15.1428571,15.4285714 Z M6,10.8571429 L6,8.57142857 L8.28571429,8.57142857 L8.28571429,10.8571429 L6,10.8571429 L6,10.8571429 Z M10.5714286,10.8571429 L10.5714286,8.57142857 L12.8571429,8.57142857 L12.8571429,10.8571429 L10.5714286,10.8571429 L10.5714286,10.8571429 Z M15.1428571,10.8571429 L15.1428571,8.57142857 L17.4285714,8.57142857 L17.4285714,10.8571429 L15.1428571,10.8571429 L15.1428571,10.8571429 Z M6,6.28571429 L6,4 L8.28571429,4 L8.28571429,6.28571429 L6,6.28571429 L6,6.28571429 Z M10.5714286,6.28571429 L10.5714286,4 L12.8571429,4 L12.8571429,6.28571429 L10.5714286,6.28571429 L10.5714286,6.28571429 Z M15.1428571,6.28571429 L15.1428571,4 L17.4285714,4 L17.4285714,6.28571429 L15.1428571,6.28571429 Z" id="Shape" fill="#000000"></path>
    </g>
</svg>

<svg xmlns="http://www.w3.org/2000/svg" viewBox="0 0 24 24"><path d="M6 20v-2.286h2.286V20H6zm4.571 0v-2.286h2.286V20h-2.286zm4.572 0v-2.286h2.286V20h-2.286zM6 15.429v-2.286h2.286v2.286H6zm4.571 0v-2.286h2.286v2.286h-2.286zm4.572 0v-2.286h2.286v2.286h-2.286zM6 10.857V8.571h2.286v2.286H6zm4.571 0V8.571h2.286v2.286h-2.286zm4.572 0V8.571h2.286v2.286h-2.286zM6 6.286V4h2.286v2.286H6zm4.571 0V4h2.286v2.286h-2.286zm4.572 0V4h2.286v2.286h-2.286z" fill-rule="evenodd"/></svg>
